X:274
T:Salamanca (reel), The 
B:CRE2.209 (Salamanca)
F:file ID: cre.2/274sala
M:C
R:reel
Q:180
K:D
dB|ADAD ADFD|(3FGA De fdcd|BE (3EEE BEGE|Bee2 cdeg|
"5"fAdg fAdg|fdec dfaf|(3fga ec dBAG|(3FGA EF D2dB|
"9"ADAD ADFD|(3FGA De fdcd|BE (3EEE BEGE|Bee2 cdeg|
"13"(3fga eg fadf|gfec dgbg|(3fga ec dABG|FA EF D2||
%
fg|"17"aaaf (3gfe ce|dgfd ecAG|(3FGA dc defg|aaab agec|
"21"defg agbg|fdec dfag|(3fga ec dBAG|(3FGA dc defg|(3FGA EF D2fg|
"25"aaaf (3gfe ce|dgfd ecAG|(3FGA dA (3Bcd eg|(3fga bg af (3ABc|
"29"defg (3ABc df|gfec dgbg|faec dBAG|(3FGA EF HD4|]

%%%

